dist/assets/icons/icon-calendar-orange.svg

<svg width="37" height="36" viewBox="0 0 37 36" fill="none" xmlns="http://www.w3.org/2000/svg">
<path d="M8.02979 0C8.65111 0 9.15479 0.50368 9.15479 1.125V2.25H27.1548V1.125C27.1548 0.50368 27.6585 0 28.2798 0C28.9011 0 29.4048 0.50368 29.4048 1.125V2.25H31.6548C34.1401 2.25 36.1548 4.26472 36.1548 6.75V31.5C36.1548 33.9853 34.1401 36 31.6548 36H4.65479C2.16951 36 0.154785 33.9853 0.154785 31.5V6.75C0.154785 4.26472 2.1695 2.25 4.65479 2.25H6.90479V1.125C6.90479 0.50368 7.40846 0 8.02979 0ZM2.40479 9V31.5C2.40479 32.7426 3.41215 33.75 4.65479 33.75H31.6548C32.8974 33.75 33.9048 32.7426 33.9048 31.5V9H2.40479Z" fill="#FBC7B1"/>
</svg>

<svg width="37" height="36" fill="none" xmlns="http://www.w3.org/2000/svg"><path d="M8.03 0c.621 0 1.125.504 1.125 1.125V2.25h18V1.125a1.125 1.125 0 012.25 0V2.25h2.25a4.5 4.5 0 014.5 4.5V31.5a4.5 4.5 0 01-4.5 4.5h-27a4.5 4.5 0 01-4.5-4.5V6.75a4.5 4.5 0 014.5-4.5h2.25V1.125C6.905.504 7.408 0 8.03 0zM2.405 9v22.5a2.25 2.25 0 002.25 2.25h27a2.25 2.25 0 002.25-2.25V9h-31.5z" fill="#FBC7B1"/></svg>
